frontend/src/components/resources/cards/TH.svg

<svg xmlns="http://www.w3.org/2000/svg" xmlns:xlink="http://www.w3.org/1999/xlink" class="TH_svg__card" height="336" preserveAspectRatio="none" viewBox="-106 -164.5 212 329" width="216"><symbol id="TH_svg__b" viewBox="-600 -600 1200 1200" preserveAspectRatio="xMinYMid"><path d="M0-300c0-100 100-200 200-200s200 100 200 250C400 0 0 400 0 500 0 400-400 0-400-250c0-150 100-250 200-250S0-400 0-300z" fill="red"/></symbol><symbol id="TH_svg__a" viewBox="-500 -500 1000 1000" preserveAspectRatio="xMinYMid"><path d="M-260 430v-860M-50 0v-310a150 150 0 01300 0v620a150 150 0 01-300 0z" stroke="red" stroke-width="80" stroke-linecap="square" stroke-miterlimit="1.5" fill="none"/></symbol><rect width="211" height="328" x="-105.5" y="-164" rx="12" ry="12" fill="#fff" stroke="#000"/><use xlink:href="#TH_svg__a" height="32" x="-100.4" y="-152.5"/><use xlink:href="#TH_svg__b" height="26.769" x="-97.784" y="-115.5"/><use xlink:href="#TH_svg__b" height="54" x="-72.167" y="-130.667"/><use xlink:href="#TH_svg__b" height="54" x="18.167" y="-130.667"/><use xlink:href="#TH_svg__b" height="54" x="-72.167" y="-61.555"/><use xlink:href="#TH_svg__b" height="54" x="18.167" y="-61.555"/><use xlink:href="#TH_svg__b" height="54" x="-27" y="-96.111"/><g transform="rotate(180)"><use xlink:href="#TH_svg__a" height="32" x="-100.4" y="-152.5"/><use xlink:href="#TH_svg__b" height="26.769" x="-97.784" y="-115.5"/><use xlink:href="#TH_svg__b" height="54" x="-72.167" y="-130.667"/><use xlink:href="#TH_svg__b" height="54" x="18.167" y="-130.667"/><use xlink:href="#TH_svg__b" height="54" x="-72.167" y="-61.555"/><use xlink:href="#TH_svg__b" height="54" x="18.167" y="-61.555"/><use xlink:href="#TH_svg__b" height="54" x="-27" y="-96.111"/></g></svg>

<?xml version="1.0" encoding="UTF-8" standalone="no"?>
<svg xmlns="http://www.w3.org/2000/svg" xmlns:xlink="http://www.w3.org/1999/xlink" class="card" face="TH" height="3.5in" preserveAspectRatio="none" viewBox="-106 -164.5 212 329" width="2.25in"><symbol id="SHT" viewBox="-600 -600 1200 1200" preserveAspectRatio="xMinYMid"><path d="M0 -300C0 -400 100 -500 200 -500C300 -500 400 -400 400 -250C400 0 0 400 0 500C0 400 -400 0 -400 -250C-400 -400 -300 -500 -200 -500C-100 -500 0 -400 -0 -300Z" fill="red"></path></symbol><symbol id="VHT" viewBox="-500 -500 1000 1000" preserveAspectRatio="xMinYMid"><path d="M-260 430L-260 -430M-50 0L-50 -310A150 150 0 0 1 250 -310L250 310A150 150 0 0 1 -50 310Z" stroke="red" stroke-width="80" stroke-linecap="square" stroke-miterlimit="1.5" fill="none"></path></symbol><rect width="211" height="328" x="-105.5" y="-164" rx="12" ry="12" fill="white" stroke="black"></rect><use xlink:href="#VHT" height="32" x="-100.4" y="-152.5"></use><use xlink:href="#SHT" height="26.769" x="-97.784" y="-115.5"></use><use xlink:href="#SHT" height="54" x="-72.167" y="-130.667"></use><use xlink:href="#SHT" height="54" x="18.167" y="-130.667"></use><use xlink:href="#SHT" height="54" x="-72.167" y="-61.555"></use><use xlink:href="#SHT" height="54" x="18.167" y="-61.555"></use><use xlink:href="#SHT" height="54" x="-27" y="-96.111"></use><g transform="rotate(180)"><use xlink:href="#VHT" height="32" x="-100.4" y="-152.5"></use><use xlink:href="#SHT" height="26.769" x="-97.784" y="-115.5"></use><use xlink:href="#SHT" height="54" x="-72.167" y="-130.667"></use><use xlink:href="#SHT" height="54" x="18.167" y="-130.667"></use><use xlink:href="#SHT" height="54" x="-72.167" y="-61.555"></use><use xlink:href="#SHT" height="54" x="18.167" y="-61.555"></use><use xlink:href="#SHT" height="54" x="-27" y="-96.111"></use></g></svg>
